packages/dnb-eufemia/assets/icons/speedometer.svg

<svg width="16" height="16" viewBox="0 0 16 16" fill="none" xmlns="http://www.w3.org/2000/svg">
<path d="M8.00007 3C6.0754 3.01454 4.29663 3.85403 3.0138 5.17772M8.00007 3V4.24441M8.00007 3C9.94757 3.01472 11.7269 3.85358 13.0043 5.17772M1.00335 9.84425H2.40022M1.00335 9.84425C1.05918 8.05315 1.82272 6.40673 3.0138 5.17772M1.00335 9.84425C0.990429 10.2586 1.00029 10.8411 1.00029 11.2556C1.00029 11.9429 1.55743 12.5 2.24469 12.5C3.54095 12.5 4.83721 12.5 6.13347 12.5M3.0138 5.17772L3.95573 6.11102M13.0043 5.17772L12.0444 6.11102M13.0043 5.17772C14.1891 6.40588 14.9421 8.05152 14.9969 9.84425M14.9969 9.84425H13.5999M14.9969 9.84425C15.0095 10.2586 14.9999 10.8411 14.9999 11.2556C14.9999 11.9429 14.4428 12.5 13.7555 12.5C12.4592 12.5 11.163 12.5 9.8667 12.5M6.13347 12.5L6.13348 11.2556C6.13348 10.2389 6.98338 9.5 8.00007 9.5C8.12608 9.5 8.24883 9.51064 8.36725 9.53115M6.13347 12.5C7.37788 12.5 8.62229 12.5 9.8667 12.5M9.8667 12.5V11.2556C9.8667 10.3567 9.232 9.68092 8.36725 9.53115M8.36725 9.53115L9 7" stroke="black" stroke-width="1.5" stroke-linecap="round" stroke-linejoin="round"/>
</svg>

<svg width="16" height="16" viewBox="0 0 16 16" fill="none" xmlns="http://www.w3.org/2000/svg"><path d="M8 3c-1.925.015-3.703.854-4.986 2.178M8 3v1.244M8 3c1.947.015 3.727.854 5.004 2.178m-12 4.666H2.4m-1.397 0c.056-1.79.82-3.437 2.01-4.666m-2.01 4.666C.99 10.26 1 10.841 1 11.256c0 .687.557 1.244 1.245 1.244h3.888m-3.12-7.322.943.933m9.048-.933-.96.933m.96-.933c1.185 1.228 1.938 2.874 1.993 4.666m0 0H13.6m1.397 0c.012.415.003.997.003 1.412 0 .687-.557 1.244-1.245 1.244H9.867m-3.734 0v-1.244c0-1.017.85-1.756 1.867-1.756.126 0 .249.01.367.031M6.133 12.5h3.734m0 0v-1.244c0-.9-.635-1.575-1.5-1.725m0 0L9 7" stroke="#000" stroke-width="1.5" stroke-linecap="round" stroke-linejoin="round"/></svg>
